storage/app/icons/phosphoricons/bold/first-aid-kit-bold.svg

<svg xmlns="http://www.w3.org/2000/svg" fill="currentColor" viewBox="0 0 256 256"><path d="M216 52h-36v-8a28 28 0 0 0-28-28h-48a28 28 0 0 0-28 28v8H40a20 20 0 0 0-20 20v128a20 20 0 0 0 20 20h176a20 20 0 0 0 20-20V72a20 20 0 0 0-20-20m-116-8a4 4 0 0 1 4-4h48a4 4 0 0 1 4 4v8h-56Zm112 152H44V76h168Zm-48-60a12 12 0 0 1-12 12h-12v12a12 12 0 0 1-24 0v-12h-12a12 12 0 0 1 0-24h12v-12a12 12 0 0 1 24 0v12h12a12 12 0 0 1 12 12"/></svg>

<svg xmlns="http://www.w3.org/2000/svg" viewBox="0 0 256 256" fill="currentColor"><path d="M216,52H180V44a28,28,0,0,0-28-28H104A28,28,0,0,0,76,44v8H40A20,20,0,0,0,20,72V200a20,20,0,0,0,20,20H216a20,20,0,0,0,20-20V72A20,20,0,0,0,216,52ZM100,44a4,4,0,0,1,4-4h48a4,4,0,0,1,4,4v8H100ZM212,196H44V76H212Zm-48-60a12,12,0,0,1-12,12H140v12a12,12,0,0,1-24,0V148H104a12,12,0,0,1,0-24h12V112a12,12,0,0,1,24,0v12h12A12,12,0,0,1,164,136Z"/></svg>
